symbols/web/accessibility_new/materialsymbolsoutlined/accessibility_new_wght600_20px.svg

<svg xmlns="http://www.w3.org/2000/svg" height="20" width="20"><path d="M10 4.896q-.75 0-1.292-.531-.541-.532-.541-1.303 0-.75.531-1.291.531-.542 1.302-.542.75 0 1.292.531.541.532.541 1.302 0 .75-.531 1.292T10 4.896ZM7.25 18.458V7.792q-1.229-.104-2.479-.302t-2.438-.532l.542-2.062q1.667.479 3.521.656 1.854.177 3.604.177t3.615-.177q1.864-.177 3.552-.656l.5 2.062q-1.188.313-2.427.521-1.24.209-2.49.313v10.666h-2.104v-5.125H9.354v5.125Z"/></svg>

<svg xmlns="http://www.w3.org/2000/svg" height="20" width="20"><path d="M10 4.896Q9.25 4.896 8.708 4.365Q8.167 3.833 8.167 3.062Q8.167 2.312 8.698 1.771Q9.229 1.229 10 1.229Q10.75 1.229 11.292 1.76Q11.833 2.292 11.833 3.062Q11.833 3.812 11.302 4.354Q10.771 4.896 10 4.896ZM7.25 18.458V7.792Q6.021 7.688 4.771 7.49Q3.521 7.292 2.333 6.958L2.875 4.896Q4.542 5.375 6.396 5.552Q8.25 5.729 10 5.729Q11.75 5.729 13.615 5.552Q15.479 5.375 17.167 4.896L17.667 6.958Q16.479 7.271 15.24 7.479Q14 7.688 12.75 7.792V18.458H10.646V13.333H9.354V18.458Z"/></svg>
